packages/icons/src/components/Icon/assets/default-outline/home.svg

<svg width="20" height="20" viewBox="0 0 20 20" fill="none" xmlns="http://www.w3.org/2000/svg">
<path d="M11.0625 16.3435V13.6247C11.0625 13.5385 10.9926 13.4685 10.9063 13.4685H9.09378C9.0075 13.4685 8.93753 13.5385 8.93753 13.6247V16.3435C8.93753 17.2582 8.196 17.9997 7.28128 17.9997H5.46878C4.55407 17.9997 3.81253 17.2582 3.81253 16.3435V11.656H3.65628C2.9864 11.656 2.38236 11.2524 2.12601 10.6335C1.8697 10.0147 2.01173 9.30251 2.48538 8.82885L8.82913 2.4851C9.47594 1.8383 10.5241 1.83831 11.1709 2.4851L17.5147 8.82885C17.9884 9.30252 18.1304 10.0146 17.8741 10.6335C17.6177 11.2524 17.0137 11.656 16.3438 11.656H16.1875V16.3435C16.1875 17.2582 15.446 17.9997 14.5313 17.9997H12.7188C11.8041 17.9997 11.0625 17.2582 11.0625 16.3435ZM12.5625 16.3435C12.5625 16.4298 12.6325 16.4997 12.7188 16.4997H14.5313C14.6176 16.4997 14.6875 16.4298 14.6875 16.3435V10.906C14.6875 10.4918 15.0233 10.156 15.4375 10.156H16.3438C16.407 10.156 16.4641 10.1177 16.4883 10.0593C16.5124 10.001 16.4988 9.93402 16.4541 9.88939L10.1104 3.54564C10.0494 3.48464 9.9507 3.48463 9.88968 3.54564L3.54593 9.88939C3.50132 9.93401 3.48772 10.001 3.51175 10.0593C3.53593 10.1177 3.5931 10.156 3.65628 10.156H4.56253C4.97675 10.156 5.31253 10.4918 5.31253 10.906V16.3435C5.31253 16.4298 5.3825 16.4997 5.46878 16.4997H7.28128C7.36758 16.4997 7.43753 16.4298 7.43753 16.3435V13.6247C7.43753 12.71 8.17907 11.9685 9.09378 11.9685H10.9063C11.821 11.9685 12.5625 12.71 12.5625 13.6247V16.3435Z" fill="#727683"/>
</svg>

<svg xmlns="http://www.w3.org/2000/svg" width="20" height="20" fill="none" viewBox="0 0 20 20">
    <path fill="#727683" d="M11.063 16.343v-2.718a.156.156 0 0 0-.157-.156H9.094a.156.156 0 0 0-.156.156v2.718c0 .915-.742 1.657-1.657 1.657H5.47a1.656 1.656 0 0 1-1.656-1.657v-4.687h-.157a1.656 1.656 0 0 1-1.17-2.827L8.83 2.485a1.656 1.656 0 0 1 2.342 0l6.344 6.344a1.656 1.656 0 0 1-1.171 2.827h-.157v4.687c0 .915-.741 1.657-1.656 1.657H12.72a1.656 1.656 0 0 1-1.656-1.657m1.5 0c0 .087.07.157.156.157h1.812c.087 0 .156-.07.156-.157v-5.437a.75.75 0 0 1 .75-.75h.907a.157.157 0 0 0 .11-.267L10.11 3.546a.156.156 0 0 0-.22 0L3.546 9.889a.156.156 0 0 0 .11.267h.907a.75.75 0 0 1 .75.75v5.437c0 .087.07.157.156.157H7.28c.087 0 .157-.07.157-.157v-2.718c0-.915.741-1.656 1.656-1.656h1.812c.915 0 1.656.741 1.656 1.656z"/>
</svg>
